tools/download-figma-icons/icons/outlined-large/female.svg

<svg width="64" height="64" viewBox="0 0 64 64" fill="none" xmlns="http://www.w3.org/2000/svg"><path d="M44.5 19.5C44.5 12.61 38.89 7 32 7s-12.5 5.61-12.5 12.5S25.11 32 32 32s12.5-5.61 12.5-12.5ZM32 29c-5.24 0-9.5-4.26-9.5-9.5S26.76 10 32 10s9.5 4.26 9.5 9.5S37.24 29 32 29Z" fill="currentColor"/><path d="M43 45h-6v-6.66c8.34-2.2 14.5-9.82 14.5-18.84C51.5 8.75 42.75 0 32 0S12.5 8.75 12.5 19.5c0 9.02 6.16 16.64 14.5 18.84V45h-6c-1.66 0-3 1.34-3 3v4c0 1.66 1.34 3 3 3h6v6c0 1.66 1.34 3 3 3h4c1.66 0 3-1.34 3-3v-6h6c1.66 0 3-1.34 3-3v-4c0-1.66-1.34-3-3-3Zm0 7h-9v9h-4v-9h-9v-4h9V35.87c-1.03-.12-2.04-.34-3-.64-6.66-2.13-11.5-8.37-11.5-15.73C15.5 10.4 22.9 3 32 3s16.5 7.4 16.5 16.5c0 7.36-4.84 13.6-11.5 15.73-.96.3-1.97.52-3 .64V48h9v4Z" fill="currentColor"/></svg>

<svg width="64" height="64" viewBox="0 0 64 64" fill="none" xmlns="http://www.w3.org/2000/svg">
<path d="M44.5 19.5C44.5 12.61 38.89 7 32 7C25.11 7 19.5 12.61 19.5 19.5C19.5 26.39 25.11 32 32 32C38.89 32 44.5 26.39 44.5 19.5ZM32 29C26.76 29 22.5 24.74 22.5 19.5C22.5 14.26 26.76 10 32 10C37.24 10 41.5 14.26 41.5 19.5C41.5 24.74 37.24 29 32 29Z" fill="black"/>
<path d="M43 45H37V38.34C45.34 36.14 51.5 28.52 51.5 19.5C51.5 8.75 42.75 0 32 0C21.25 0 12.5 8.75 12.5 19.5C12.5 28.52 18.66 36.14 27 38.34V45H21C19.34 45 18 46.34 18 48V52C18 53.66 19.34 55 21 55H27V61C27 62.66 28.34 64 30 64H34C35.66 64 37 62.66 37 61V55H43C44.66 55 46 53.66 46 52V48C46 46.34 44.66 45 43 45ZM43 52H34V61H30V52H21V48H30V35.87C28.97 35.75 27.96 35.53 27 35.23C20.34 33.1 15.5 26.86 15.5 19.5C15.5 10.4 22.9 3 32 3C41.1 3 48.5 10.4 48.5 19.5C48.5 26.86 43.66 33.1 37 35.23C36.04 35.53 35.03 35.75 34 35.87V48H43V52Z" fill="black"/>
</svg>
